X:132
T:Life is chequered (NTDO)
%%VWML:SBG-1-2-744-0
F:http://www.vwml.org/record/SBG/1/2/744
Z:Original Sibelius transcriptions by M. & S. Graebe
M:4/4
I:linebreak $
K:C
V:1 treble nm="P1"
V:1
"^slow" c3 d e c3 |"^quick" B2 c2 d2 G2 | c2 G2 A2 E2 | G2 G2 E2 C2 | c3 d e2 d-c | B2 c2 d2 G2 |$ %6
 c2 G2 A2 E2 | F2 G2 E2 C2 | G2 G F E F G2 | G2 GF E F G2 | c3/2 d/ e2 c d2 F2 | dc BA G2 G2 |$ %12
 A B c2 A B c2 | A B c2 A B c2 | d c d e c4 |[M:6/8] G |"^Chorus" c3/2 d/ c ed c | g e z g e z G |$ %18
 c3/2 d/ c ed c | g e z g e z | c c z G G z | c c c G2 G/ G/ | c2 d/ e/ d2 e/ f/ |$ e d c g2 f | %24
 edc G3 F/ G/ | c3 g3 | e d c G3/2 F/ G | C6 | %28

